symbols/web/dangerous/materialsymbolsoutlined/dangerous_wght500_24px.svg

<svg xmlns="http://www.w3.org/2000/svg" height="24" width="24"><path d="M8.175 21.2 2.8 15.825v-7.65L8.175 2.8h7.65L21.2 8.175v7.65L15.825 21.2Zm1-4.925 2.825-2.8 2.825 2.8 1.45-1.45-2.8-2.825 2.8-2.825-1.45-1.45-2.825 2.8-2.825-2.8-1.45 1.45 2.8 2.825-2.8 2.825Zm-.05 2.65h5.75l4.05-4.05v-5.75l-4.05-4.05h-5.75l-4.05 4.05v5.75ZM12 12Z"/></svg>

<svg xmlns="http://www.w3.org/2000/svg" height="24" width="24"><path d="M8.175 21.2 2.8 15.825V8.175L8.175 2.8H15.825L21.2 8.175V15.825L15.825 21.2ZM9.175 16.275 12 13.475 14.825 16.275 16.275 14.825 13.475 12 16.275 9.175 14.825 7.725 12 10.525 9.175 7.725 7.725 9.175 10.525 12 7.725 14.825ZM9.125 18.925H14.875L18.925 14.875V9.125L14.875 5.075H9.125L5.075 9.125V14.875ZM12 12Z"/></svg>
